!!!COM: Aaron Copland
!!!OTL: [T719_Cop-w31p15m164-175]
**kern	**dynam	**kern	**dynam	**kern	**dynam	**kern	**dynam	**kern	**dynam	**kern	**dynam
*grp:A	*grp:A	*grp:A	*grp:A	*grp:B	*grp:B	*grp:B	*grp:B	*grp:A	*grp:A	*grp:B	*grp:B
*part6	*part6	*part5	*part5	*part4	*part4	*part3	*part3	*part2	*part2	*part1	*part1
*staff6	*staff6	*staff5	*staff5	*staff4	*staff4	*staff3	*staff3	*staff2	*staff2	*staff1	*staff1
*I"Contrabass	*I"Contrabass	*I"Violoncello	*I"Violoncello	*I"Viola	*I"Viola	*I"Violin II	*I"Violin II	*I"Violin I	*I"Violin I	*I"Solo Clarinet in Bb	*I"Solo Clarinet in Bb
*I'Cb.	*	*I'Vc.	*	*I'Vla.	*	*I'Vln. II	*	*I'Vln. I	*	*I'Cl.	*
*clefF4	*	*clefF4	*	*clefC3	*	*clefG2	*	*clefG2	*	*clefG2	*
*ITrd7c12	*	*	*	*	*	*	*	*	*	*ITrd1c2	*
*k[b-e-a-d-g-]	*	*k[b-e-a-d-g-]	*	*k[b-e-a-d-g-]	*	*k[b-e-a-d-g-]	*	*k[b-e-a-d-g-]	*	*k[b-e-a-d-g-]	*
*D-:	*	*D-:	*	*D-:	*	*D-:	*	*D-:	*	*D-:	*
*M2/2	*	*M2/2	*	*M2/2	*	*M2/2	*	*M2/2	*	*M2/2	*
*met(c|)	*	*met(c|)	*	*met(c|)	*	*met(c|)	*	*met(c|)	*	*met(c|)	*
=1	=1	=1	=1	=1	=1	=1	=1	=1	=1	=1	=1
!LO:TX:a:t=(half)	!	!	!	!	!	!	!	!LO:TX:a:rj:t=[div. in 3]	!	!	!
!LO:TX:a:rj:t=[pizz.]	!LO:DY:ed=brack	!LO:TX:a:rj:t=[unis., arco]	!LO:DY:ed=brack	!	!	!	!	!LO:TX:a:i:rj:t=[at the point]	!LO:DY:ed=brack	!	!
4FF	mf	4FF'	mf	4ryy	.	4rvyy	.	8ffv 8bb- 8ddd-	mf	4ryy	.
.	.	.	.	.	.	.	.	8r	.	.	.
*	*	*	*	*	*	*^	*	*	*	*	*
!	!	!	!	!LO:TX:a:rj:t=[div.]	!LO:DY:ed=brack	!	!	!LO:DY:t=[ %s spicc. ]	!	!	!	!LO:DY:ed=brack
4r	.	4r	.	4ryy	4ryy	8ryy	8ryy	4ryy	4r	.	4ryy	4ryy
.	.	.	.	.	.	8ryy	8ryy	.	.	.	.	.
*	*	*	*	*	*	*v	*v	*	*	*	*	*
4EE-	.	4EE-'	.	4r'yy	.	4ryy	.	8dd-v 8gg- 8bb-	.	4ryy	.
.	.	.	.	.	.	.	.	8r	.	.	.
*	*	*	*	*	*	*^	*	*	*	*	*
4r	.	4r	.	4ryy	.	8ryy	8ryy	.	4r	.	4ryy	.
.	.	.	.	.	.	8ryy	8ryy	.	.	.	.	.
*	*	*	*	*	*	*v	*v	*	*	*	*	*
!!LO:REH:t=165
=2	=2	=2	=2	=2	=2	=2	=2	=2	=2	=2	=2
4DD-	.	4DD-'	.	4r'yy	.	4rvyy	.	8ee-v 8aa- 8ccc	.	4ryy	.
.	.	.	.	.	.	.	.	8r	.	.	.
*	*	*	*	*	*	*^	*	*	*	*	*
4r	.	4r	.	4ryy	.	8ryy	8ryy	.	4r	.	4ryy	.
.	.	.	.	.	.	8ryy	8ryy	.	.	.	.	.
*	*	*	*	*	*	*v	*v	*	*	*	*	*
4EE-	.	4EE-'	.	4r'yy	.	4ryy	.	8aa-v 8ddd- 8fff	.	4ryy	.
.	.	.	.	.	.	.	.	8r	.	.	.
*	*	*	*	*	*	*^	*	*	*	*	*
4r	.	4r	.	4ryy	.	8ryy	8ryy	.	4r	.	4ryy	.
.	.	.	.	.	.	8ryy	8ryy	.	.	.	.	.
*	*	*	*	*	*	*v	*v	*	*	*	*	*
=3	=3	=3	=3	=3	=3	=3	=3	=3	=3	=3	=3
4FF	.	4FF'	.	4r'yy	.	4rvyy	.	8ffv 8bb- 8ddd-	.	4ryy	.
.	.	.	.	.	.	.	.	8r	.	.	.
*	*	*	*	*	*	*^	*	*	*	*	*
4r	.	4r	.	4ryy	.	8ryy	8ryy	.	4r	.	4ryy	.
.	.	.	.	.	.	8ryy	8ryy	.	.	.	.	.
*	*	*	*	*	*	*v	*v	*	*	*	*	*
4GG-	.	4GG-'	.	4r'yy	.	4ryy	.	8dd-v 8gg- 8bb-	.	4r`yy	.
.	.	.	.	.	.	.	.	8r	.	.	.
*	*	*	*	*	*	*^	*	*	*	*	*
4r	.	4r	.	4ryy	.	8ryy	8ryy	.	4r	.	4ryy	.
.	.	.	.	.	.	8ryy	8ryy	.	.	.	.	.
*	*	*	*	*	*	*v	*v	*	*	*	*	*
=4	=4	=4	=4	=4	=4	=4	=4	=4	=4	=4	=4
*	*	*	*	*^	*	*	*	*	*	*	*
4FF	.	4FF'	.	8ryy@yy	4ryy	.	2ryy	.	8ee-v 8aa- 8ccc	.	4r`yy	.
.	.	.	.	8ryy@yy	.	.	.	.	8r	.	.	.
*	*	*	*	*	*	*	*	*	*^	*	*	*
!	!	!	!	!	!	!	!	!	!LO:TX:b:i:t=spicc.	!	!	!	!
!	!	!	!	!	!	!LO:HP:t=poco cresc.	!	!	!LO:TX:a:t=div. in 2	!	!LO:HP:t=poco cresc.	!	!LO:HP:t=poco cresc.
4r	.	4r	.	4ryy	8ryy	4ryy	.	.	8fff'L	8ddd-'L	<	4ryy	4ryy
.	.	.	.	.	8ryy	.	.	.	8aa-'J	8aa-'J	.	.	.
*	*	*	*	*	*	*	*^	*	*v	*v	*	*	*
!	!LO:HP:t=poco cresc.	!	!LO:HP:t=poco cresc.	!	!	!	!	!	!LO:HP:t=poco cresc.	!	!	!	!
4EE-	<	4EE-'	<	8ryy@yy	4ryy	.	8ryy	8ryy	4ryy	4r	.	4ryy	.
.	.	.	.	8ryy@yy	.	.	8ryy	8ryy	.	.	.	.	.
*	*	*	*	*	*	*	*v	*v	*	*^	*	*	*
4r	.	4r	.	4ryy	8ryy	.	4ryy	.	8ddd-'L	8bb-'L	.	4ryy	.
.	.	.	.	.	8ryy	.	.	.	8ff'J	8ff'J	.	.	.
*	*	*	*	*	*	*	*	*	*v	*v	*	*	*
=5	=5	=5	=5	=5	=5	=5	=5	=5	=5	=5	=5	=5
*	*	*	*	*	*	*	*^	*	*	*	*	*
!	!	!	!	!	!	!	!LO:TX:a:i:t=sim.	!	!	!	!	!	!
4FF	.	4FF'	.	8ryy@yy	4ryy	.	8ryy	8ryy	.	4rv	.	4ryy	.
.	.	.	.	8ryy@yy	.	.	8ryy	8ryy	.	.	.	.	.
*	*	*	*	*	*	*	*v	*v	*	*^	*	*	*
4r	.	4r	.	4ryy	8ryy	.	4ryy	.	8bb-'L	8gg-'L	.	4ryy	.
.	.	.	.	.	8ryy	.	.	.	8dd-'J	8dd-'J	.	.	.
*	*	*	*	*	*	*	*^	*	*v	*v	*	*	*
4EE-	.	4EE-'	.	8ryy@yy	4ryy	.	8ryy	8ryy	.	4r	.	4ryy	.
.	.	.	.	8ryy@yy	.	.	8ryy	8ryy	.	.	.	.	.
*	*	*	*	*	*	*	*v	*v	*	*^	*	*	*
4r	.	4r	.	4ryy	8ryy	.	4ryy	.	8ccc'L	8aa-'L	.	4ryy	.
.	.	.	.	.	8ryy	.	.	.	8ee-'J	8ee-'J	.	.	.
*	*	*	*	*v	*v	*	*	*	*v	*v	*	*	*
=6	=6	=6	=6	=6	=6	=6	=6	=6	=6	=6	=6
*	*	*	*	*	*	*^	*	*	*	*	*
!LO:TX:a:t=Tutti	!	!LO:TX:a:t=div.	!	!LO:TX:a:t=unis.	!	!	!	!	!	!	!	!
4DD-	f	4r	.	4ryy	.	8ryy	8ryy	.	4rv	.	4ryy	.
.	.	.	.	.	.	8ryy	8ryy	.	.	.	.	.
*	*	*	*	*	*	*	*	*	*^	*	*	*
4r	.	4F' 4f	f	8ryy	4ryy	4ryy	4ryy	.	8fff'L	8ddd-'L	f	4ryy	.
.	.	.	.	8ryy	.	.	.	.	8aa-'J	8aa-'J	.	.	.
*	*	*	*	*	*	*	*	*	*v	*v	*	*	*
4EE-	.	4r'	.	4ryy	.	8ryy	8ryy	4ryy	4r	.	4ryy	4ryy
.	.	.	.	.	.	8ryy	8ryy	.	.	.	.	.
*	*	*	*	*	*	*	*	*	*^	*	*	*
4r	.	4G-' 4g-	.	8ryy	.	4ryy	4ryy	.	8ddd-'L	8bb-'L	.	8ryy	.
.	.	.	.	8ryy	.	.	.	.	8ff'J	8ff'J	.	8ryy	.
*	*	*	*	*	*	*	*	*	*v	*v	*	*	*
!!LO:REH:t=170
=7	=7	=7	=7	=7	=7	=7	=7	=7	=7	=7	=7	=7
4FF	.	4r'	.	4ryy	.	8ryy	8ryy	.	4r	.	8ryy	.
.	.	.	.	.	.	8ryy	8ryy	.	.	.	8ryy	.
*	*	*	*	*	*	*v	*v	*	*	*	*	*
*	*	*clefC4	*	*	*	*	*	*	*	*	*
*	*	*	*	*	*	*	*	*^	*	*	*
4r'	.	4A-' 4a-	.	8ryy	.	4ryy	.	8ddd-'L	8bb-'L	.	8ryy	.
.	.	.	.	8ryy	.	.	.	8ff'J	8ff'J	.	8ryy	.
!	!	!	!	!	!	!LO:TX:a:t=unis.	!	!	!	!	!	!
4GGn	.	4r'	.	4ryy	.	8ryy	.	8bb-'L	8bb-'L	.	4ryy	.
.	.	.	.	.	.	8ryy	.	8ff'J	8ff'J	.	.	.
4r'	.	4B-' 4b-	.	8ryy	.	8ryy	.	8ff'L	8ff'L	.	8ryy	.
.	.	.	.	8ryy	.	8ryy	.	8f'J	8f'J	.	8ryy	.
*	*	*	*	*	*	*	*	*v	*v	*	*	*
=8	=8	=8	=8	=8	=8	=8	=8	=8	=8	=8	=8
4AAn	.	4r'	.	4ryy	.	4ryy	.	4r	.	8ryy	.
.	.	.	.	.	.	.	.	.	.	8ryy	.
!	!	!	!	!	!	!	!	!LO:TX:a:t=unis.	!	!	!
4r'	.	4c' 4cc	.	8ryy	.	8ryy	.	8bb-'L	.	4ryy	.
.	.	.	.	8ryy	.	8ryy	.	8ff'J	.	.	.
4GGn	.	4r'	.	4ryy	.	8ryy	.	8ff'L	.	8ryy	.
.	.	.	.	.	.	8ryy	.	8f'J	.	8ryy	.
4r'	.	4B-' 4b-	.	8ryy	.	4ryy	.	4r	.	8ryy	.
.	.	.	.	8ryy	.	.	.	.	.	8ryy	.
=9	=9	=9	=9	=9	=9	=9	=9	=9	=9	=9	=9
4AAn	.	4r'	.	4ryy	.	8ryy	.	8ddd-'L	.	4ryy	.
.	.	.	.	.	.	8ryy	.	8gg-'J	.	.	.
!	!	!LO:TX:a:i:t=sim.	!	!	!	!	!	!	!	!	!
4r'	.	4c' 4cc'	.	8ryy	.	8ryy	.	8bb-'L	.	8ryy	.
.	.	.	.	8ryy	.	8ryy	.	8ee-'J	.	8ryy	.
4BB-	.	4r'	.	4ryy	.	4ryy	.	4r	.	8ryy	.
.	.	.	.	.	.	.	.	.	.	8ryy	.
!	!	!	!	!	!	!LO:TX:a:i:t=sim.	!	!LO:TX:a:i:t=sim.	!	!	!
4r	.	4d-' 4dd-'	.	8ryy	.	8ryy	.	8ddd-L'	.	4ryy	.
.	.	.	.	8ryy	.	8ryy	.	8gg-J'	.	.	.
=10	=10	=10	=10	=10	=10	=10	=10	=10	=10	=10	=10
4C	.	4r'	.	4ryy	.	8ryy	.	8fffL'	.	4ryy	.
.	.	.	.	.	.	8ryy	.	8bb-J'	.	.	.
4r'	.	4e-' 4ee-'	.	8ryy	.	4ryy	.	4r	.	8ryy	4ryy
.	.	.	.	8ryy	.	.	.	.	.	8ryy	.
4BB-	<	4r'	<	4ryy	4ryy	8ryy	4ryy	8ddd-L'	<	8ryy	.
.	.	.	.	.	.	8ryy	.	8gg-J'	.	8ryy	.
4r'	.	4d-' 4dd-'	.	8ryy	.	8ryy	.	8bb-L'	.	8ryy	.
.	.	.	.	8ryy	.	8ryy	.	8ee-J'	.	8ryy	.
*	*	*	*	*clefG2	*	*	*	*	*	*	*
=11	=11	=11	=11	=11	=11	=11	=11	=11	=11	=11	=11
!	!	!LO:TX:a:t=unis.	!	!	!	!	!	!	!	!	!
4C	.	4r'	.	4ryy	.	8ryy	.	8bb-L'	.	4ryy	.
.	.	.	.	.	.	8ryy	.	8ee-J'	.	.	.
4r	.	4e-'	.	8ryy	.	8ryy	.	8ffL'	.	8ryy	.
.	.	.	.	8ryy	.	8ryy	.	8b-J'	.	8ryy	.
4D-	.	4r	.	4ryy	.	4ryy	.	4r	.	8ryy	.
.	.	.	.	.	.	.	.	.	.	8ryy	.
4r	.	4f'	.	8ryy	.	8ryy	.	8ddd-L'	.	4ryy	.
.	.	.	.	8ryy	.	8ryy	.	8gg-J'	.	.	.
!!LO:REH:t=175
=12	=12	=12	=12	=12	=12	=12	=12	=12	=12	=12	=12
4E-	.	4r	.	4ryy	.	8ryy	.	8fffL'	.	8ryy	.
.	.	.	.	.	.	8ryy	.	8bb-J'	.	8ryy	.
4r	.	4g-'	.	8ryy	.	8ryy	.	8aaa-L'	.	8ryy	.
.	.	.	.	8ryy	.	8ryy	.	8ddd-J'	.	8ryy	.
4F	.	4r	.	4ryy	.	8ryy	.	8fffL'	.	8ryy	.
.	.	.	.	.	.	8ryy	.	8bb-J'	.	8ryy	.
4r	.	4a-'	.	8ryy	.	8ryy	.	8ddd-L'	.	8ryy	.
.	.	.	.	8ryy	.	8ryy	.	8gg-J'	.	8ryy	.
=||	=||	=||	=||	=||	=||	=||	=||	=||	=||	=||	=||
*-	*-	*-	*-	*-	*-	*-	*-	*-	*-	*-	*-
!!!system-decoration: s1[(s2,s3,s4,s5,s6)]
